assets/dude/That–June.svg

<svg width="376" height="115" viewBox="0 0 376 115" fill="none" xmlns="http://www.w3.org/2000/svg">
<path d="M86.7143 11.5199C80.5543 11.5199 72.1543 13.1999 66.8343 16.4199C66.1343 16.8399 65.2943 17.3999 65.0143 17.3999C64.7343 17.3999 64.5943 16.9799 64.5943 16.9799C62.7743 7.45993 54.3743 0.179932 44.2943 0.179932C34.2143 0.179932 25.8143 7.45993 23.9943 16.9799C23.9943 16.9799 23.8543 17.3999 23.5743 17.3999C23.2943 17.3999 22.4543 16.8399 21.7543 16.4199C16.4343 13.1999 8.03426 11.5199 1.87426 11.5199C1.17426 11.5199 0.614258 12.0799 0.614258 12.7799C0.614258 14.5999 2.71426 17.3999 2.71426 42.7399V54.0799C2.71426 54.7799 3.27426 55.3399 3.97426 55.3399H11.5343C12.2343 55.3399 12.7943 54.7799 12.7943 54.0799V52.8199C12.7943 47.9199 16.7143 43.9999 21.6143 43.9999H37.9943C38.6943 43.9999 39.2543 44.5599 39.2543 45.2599V70.4599C39.2543 71.1599 38.6943 71.7199 37.9943 71.7199H24.1343C23.4343 71.7199 22.8743 72.2799 22.8743 72.9799C22.8743 98.3199 20.7743 101.12 20.7743 102.94C20.7743 103.64 21.3343 104.2 22.0343 104.2C24.8343 104.2 27.2143 103.64 30.0143 102.24C30.2943 102.1 30.7143 101.82 30.9943 101.82C31.2743 101.82 31.4143 102.1 31.4143 102.24C31.4143 109.24 37.2943 114.84 44.2943 114.84C51.2943 114.84 57.1743 109.24 57.1743 102.24C57.1743 102.1 57.3143 101.82 57.5943 101.82C57.8743 101.82 58.2943 102.1 58.5743 102.24C61.3743 103.64 63.7543 104.2 66.5543 104.2C67.2543 104.2 67.8143 103.64 67.8143 102.94C67.8143 101.12 65.7143 98.3199 65.7143 72.9799C65.7143 72.2799 65.1543 71.7199 64.4543 71.7199H50.5943C49.8943 71.7199 49.3343 71.1599 49.3343 70.4599V45.2599C49.3343 44.5599 49.8943 43.9999 50.5943 43.9999H66.9743C71.8743 43.9999 75.7943 47.9199 75.7943 52.8199V54.0799C75.7943 54.7799 76.3543 55.3399 77.0543 55.3399H84.6143C85.3143 55.3399 85.8743 54.7799 85.8743 54.0799V42.7399C85.8743 17.3999 87.9743 14.5999 87.9743 12.7799C87.9743 12.0799 87.4143 11.5199 86.7143 11.5199Z" fill="#FF1C31"/>
<path d="M189.923 71.7199H176.063C175.363 71.7199 174.803 71.1599 174.803 70.4599V45.2599C174.803 44.5599 175.363 43.9999 176.063 43.9999H189.923C190.623 43.9999 191.183 43.4399 191.183 42.7399C191.183 17.3999 193.283 14.5999 193.283 12.7799C193.283 12.0799 192.723 11.5199 192.023 11.5199C189.223 11.5199 186.843 12.0799 184.043 13.4799C183.763 13.6199 183.343 13.8999 183.063 13.8999C182.783 13.8999 182.643 13.6199 182.643 13.4799C182.643 6.47993 176.763 0.87993 169.763 0.87993C162.763 0.87993 156.883 6.47993 156.883 13.4799C156.883 13.6199 156.743 13.8999 156.463 13.8999C156.183 13.8999 155.763 13.6199 155.483 13.4799C152.683 12.0799 150.303 11.5199 147.503 11.5199C146.803 11.5199 146.243 12.0799 146.243 12.7799C146.243 14.5999 148.343 17.3999 148.343 42.7399C148.343 43.4399 148.903 43.9999 149.603 43.9999H163.463C164.163 43.9999 164.723 44.5599 164.723 45.2599V52.8199C164.723 53.5199 164.163 54.0799 163.463 54.0799H123.143C122.443 54.0799 121.883 53.5199 121.883 52.8199V45.2599C121.883 44.5599 122.443 43.9999 123.143 43.9999H137.003C137.703 43.9999 138.263 43.4399 138.263 42.7399C138.263 17.3999 140.363 14.5999 140.363 12.7799C140.363 12.0799 139.803 11.5199 139.103 11.5199C136.303 11.5199 133.923 12.0799 131.123 13.4799C130.843 13.6199 130.423 13.8999 130.143 13.8999C129.863 13.8999 129.723 13.6199 129.723 13.4799C129.723 6.47993 123.843 0.87993 116.843 0.87993C109.843 0.87993 103.963 6.47993 103.963 13.4799C103.963 13.6199 103.823 13.8999 103.543 13.8999C103.263 13.8999 102.843 13.6199 102.563 13.4799C99.7627 12.0799 97.3827 11.5199 94.5827 11.5199C93.8827 11.5199 93.3227 12.0799 93.3227 12.7799C93.3227 14.5999 95.4227 17.3999 95.4227 42.7399C95.4227 43.4399 95.9827 43.9999 96.6827 43.9999H110.543C111.243 43.9999 111.803 44.5599 111.803 45.2599V70.4599C111.803 71.1599 111.243 71.7199 110.543 71.7199H96.6827C95.9827 71.7199 95.4227 72.2799 95.4227 72.9799C95.4227 98.3199 93.3227 101.12 93.3227 102.94C93.3227 103.64 93.8827 104.2 94.5827 104.2C97.3827 104.2 99.7627 103.64 102.563 102.24C102.843 102.1 103.263 101.82 103.543 101.82C103.823 101.82 103.963 102.1 103.963 102.24C103.963 109.24 109.843 114.84 116.843 114.84C123.843 114.84 129.723 109.24 129.723 102.24C129.723 102.1 129.863 101.82 130.143 101.82C130.423 101.82 130.843 102.1 131.123 102.24C133.923 103.64 136.303 104.2 139.103 104.2C139.803 104.2 140.363 103.64 140.363 102.94C140.363 101.12 138.263 98.3199 138.263 72.9799C138.263 72.2799 137.703 71.7199 137.003 71.7199H123.143C122.443 71.7199 121.883 71.1599 121.883 70.4599V62.8999C121.883 62.1999 122.443 61.6399 123.143 61.6399H163.463C164.163 61.6399 164.723 62.1999 164.723 62.8999V70.4599C164.723 71.1599 164.163 71.7199 163.463 71.7199H149.603C148.903 71.7199 148.343 72.2799 148.343 72.9799C148.343 98.3199 146.243 101.12 146.243 102.94C146.243 103.64 146.803 104.2 147.503 104.2C150.303 104.2 152.683 103.64 155.483 102.24C155.763 102.1 156.183 101.82 156.463 101.82C156.743 101.82 156.883 102.1 156.883 102.24C156.883 109.24 162.763 114.84 169.763 114.84C176.763 114.84 182.643 109.24 182.643 102.24C182.643 102.1 182.783 101.82 183.063 101.82C183.343 101.82 183.763 102.1 184.043 102.24C186.843 103.64 189.223 104.2 192.023 104.2C192.723 104.2 193.283 103.64 193.283 102.94C193.283 101.12 191.183 98.3199 191.183 72.9799C191.183 72.2799 190.623 71.7199 189.923 71.7199Z" fill="#FF1C31"/>
<path d="M296.033 72.9799C296.033 72.2799 295.473 71.7199 294.773 71.7199H283.013C282.313 71.7199 281.193 71.1599 280.493 70.0399L264.813 45.3999C264.813 45.3999 264.533 44.9799 264.533 44.5599C264.533 44.2799 264.813 43.9999 265.373 43.9999H268.313C269.013 43.9999 269.573 43.4399 269.573 42.7399C269.573 17.3999 271.673 14.5999 271.673 12.7799C271.673 12.0799 271.113 11.5199 270.413 11.5199C267.613 11.5199 265.233 12.0799 262.433 13.4799C262.153 13.6199 261.733 13.8999 261.453 13.8999C261.173 13.8999 261.033 13.6199 261.033 13.4799C261.033 6.47993 255.153 0.87993 248.153 0.87993C241.153 0.87993 235.273 6.47993 235.273 13.4799C235.273 13.6199 235.133 13.8999 234.853 13.8999C234.573 13.8999 234.153 13.6199 233.873 13.4799C231.073 12.0799 228.693 11.5199 225.893 11.5199C225.193 11.5199 224.633 12.0799 224.633 12.7799C224.633 14.5999 226.733 17.3999 226.733 42.7399C226.733 43.4399 227.293 43.9999 227.993 43.9999H232.613C233.173 43.9999 233.453 44.2799 233.453 44.5599C233.453 44.9799 233.173 45.3999 233.173 45.3999L217.493 70.0399C216.793 71.1599 216.373 71.7199 215.673 71.7199H201.533C200.833 71.7199 200.273 72.2799 200.273 72.9799C200.273 98.3199 198.173 101.12 198.173 102.94C198.173 103.64 198.733 104.2 199.433 104.2C202.233 104.2 204.613 103.64 207.413 102.24C207.693 102.1 208.113 101.82 208.393 101.82C208.673 101.82 208.813 102.1 208.813 102.24C208.813 109.24 214.693 114.84 221.693 114.84C228.693 114.84 234.573 109.24 234.573 102.24C234.573 102.1 234.713 101.82 234.993 101.82C235.273 101.82 235.693 102.1 235.973 102.24C238.773 103.64 241.153 104.2 243.953 104.2C244.653 104.2 245.213 103.64 245.213 102.94C245.213 101.12 243.113 98.3199 243.113 72.9799C243.113 72.2799 242.553 71.7199 241.853 71.7199H228.553C227.993 71.7199 227.573 71.7199 227.573 71.4399C227.573 71.0199 227.853 70.5999 227.853 70.5999L231.213 65.1399C231.913 64.0199 232.333 63.4599 233.033 63.4599H260.473C261.173 63.4599 261.593 64.0199 262.293 65.1399L265.513 70.3199C265.513 70.3199 265.793 70.7399 265.793 71.1599C265.793 71.4399 265.513 71.7199 264.953 71.7199H254.453C253.753 71.7199 253.193 72.2799 253.193 72.9799C253.193 98.3199 251.093 101.12 251.093 102.94C251.093 103.64 251.653 104.2 252.353 104.2C255.153 104.2 257.533 103.64 260.333 102.24C260.613 102.1 261.033 101.82 261.313 101.82C261.593 101.82 261.733 102.1 261.733 102.24C261.733 109.24 267.613 114.84 274.613 114.84C281.613 114.84 287.493 109.24 287.493 102.24C287.493 102.1 287.633 101.82 287.913 101.82C288.193 101.82 288.613 102.1 288.893 102.24C291.693 103.64 294.073 104.2 296.873 104.2C297.573 104.2 298.133 103.64 298.133 102.94C298.133 101.12 296.033 98.3199 296.033 72.9799ZM255.013 55.8999H238.493C237.933 55.8999 237.653 55.6199 237.653 55.3399C237.653 54.9199 237.933 54.4999 237.933 54.4999L243.393 45.6799C244.093 44.5599 244.513 43.9999 245.213 43.9999H248.153C248.853 43.9999 249.273 44.5599 249.973 45.6799L255.573 54.4999C255.573 54.4999 255.853 54.9199 255.853 55.3399C255.853 55.6199 255.573 55.8999 255.013 55.8999Z" fill="#FF1C31"/>
<path d="M374.097 11.5199C367.937 11.5199 359.537 13.1999 354.217 16.4199C353.517 16.8399 352.677 17.3999 352.397 17.3999C352.117 17.3999 351.977 16.9799 351.977 16.9799C350.157 7.45993 341.757 0.179932 331.677 0.179932C321.597 0.179932 313.197 7.45993 311.377 16.9799C311.377 16.9799 311.237 17.3999 310.957 17.3999C310.677 17.3999 309.837 16.8399 309.137 16.4199C303.817 13.1999 295.417 11.5199 289.257 11.5199C288.557 11.5199 287.997 12.0799 287.997 12.7799C287.997 14.5999 290.097 17.3999 290.097 42.7399V54.0799C290.097 54.7799 290.657 55.3399 291.357 55.3399H298.917C299.617 55.3399 300.177 54.7799 300.177 54.0799V52.8199C300.177 47.9199 304.097 43.9999 308.997 43.9999H325.377C326.077 43.9999 326.637 44.5599 326.637 45.2599V70.4599C326.637 71.1599 326.077 71.7199 325.377 71.7199H311.517C310.817 71.7199 310.257 72.2799 310.257 72.9799C310.257 98.3199 308.157 101.12 308.157 102.94C308.157 103.64 308.717 104.2 309.417 104.2C312.217 104.2 314.597 103.64 317.397 102.24C317.677 102.1 318.097 101.82 318.377 101.82C318.657 101.82 318.797 102.1 318.797 102.24C318.797 109.24 324.677 114.84 331.677 114.84C338.677 114.84 344.557 109.24 344.557 102.24C344.557 102.1 344.697 101.82 344.977 101.82C345.257 101.82 345.677 102.1 345.957 102.24C348.757 103.64 351.137 104.2 353.937 104.2C354.637 104.2 355.197 103.64 355.197 102.94C355.197 101.12 353.097 98.3199 353.097 72.9799C353.097 72.2799 352.537 71.7199 351.837 71.7199H337.977C337.277 71.7199 336.717 71.1599 336.717 70.4599V45.2599C336.717 44.5599 337.277 43.9999 337.977 43.9999H354.357C359.257 43.9999 363.177 47.9199 363.177 52.8199V54.0799C363.177 54.7799 363.737 55.3399 364.437 55.3399H371.997C372.697 55.3399 373.257 54.7799 373.257 54.0799V42.7399C373.257 17.3999 375.357 14.5999 375.357 12.7799C375.357 12.0799 374.797 11.5199 374.097 11.5199Z" fill="#FF1C31"/>
</svg>

<svg xmlns="http://www.w3.org/2000/svg" fill="none" viewBox="0 0 376 115"><path fill="#FF1C31" d="M86.714 11.52c-6.16 0-14.56 1.68-19.88 4.9-.7.42-1.54.98-1.82.98s-.42-.42-.42-.42c-1.82-9.52-10.22-16.8-20.3-16.8s-18.48 7.28-20.3 16.8c0 0-.14.42-.42.42-.28 0-1.12-.56-1.82-.98-5.32-3.22-13.72-4.9-19.88-4.9-.7 0-1.26.56-1.26 1.26 0 1.82 2.1 4.62 2.1 29.96v11.34c0 .7.56 1.26 1.26 1.26h7.56c.7 0 1.26-.56 1.26-1.26v-1.26c0-4.9 3.92-8.82 8.82-8.82h16.38c.7 0 1.26.56 1.26 1.26v25.2c0 .7-.56 1.26-1.26 1.26h-13.86c-.7 0-1.26.56-1.26 1.26 0 25.34-2.1 28.14-2.1 29.96 0 .7.56 1.26 1.26 1.26 2.8 0 5.18-.56 7.98-1.96.28-.14.7-.42.98-.42s.42.28.42.42c0 7 5.88 12.6 12.88 12.6 7 0 12.88-5.6 12.88-12.6 0-.14.14-.42.42-.42.28 0 .7.28.98.42 2.8 1.4 5.18 1.96 7.98 1.96.7 0 1.26-.56 1.26-1.26 0-1.82-2.1-4.62-2.1-29.96 0-.7-.56-1.26-1.26-1.26h-13.86c-.7 0-1.26-.56-1.26-1.26v-25.2c0-.7.56-1.26 1.26-1.26h16.38c4.9 0 8.82 3.92 8.82 8.82v1.26c0 .7.56 1.26 1.26 1.26h7.56c.7 0 1.26-.56 1.26-1.26V42.74c0-25.34 2.1-28.14 2.1-29.96 0-.7-.56-1.26-1.26-1.26zM189.923 71.72h-13.86c-.7 0-1.26-.56-1.26-1.26v-25.2c0-.7.56-1.26 1.26-1.26h13.86c.7 0 1.26-.56 1.26-1.26 0-25.34 2.1-28.14 2.1-29.96 0-.7-.56-1.26-1.26-1.26-2.8 0-5.18.56-7.98 1.96-.28.14-.7.42-.98.42s-.42-.28-.42-.42c0-7-5.88-12.6-12.88-12.6-7 0-12.88 5.6-12.88 12.6 0 .14-.14.42-.42.42-.28 0-.7-.28-.98-.42-2.8-1.4-5.18-1.96-7.98-1.96-.7 0-1.26.56-1.26 1.26 0 1.82 2.1 4.62 2.1 29.96 0 .7.56 1.26 1.26 1.26h13.86c.7 0 1.26.56 1.26 1.26v7.56c0 .7-.56 1.26-1.26 1.26h-40.32c-.7 0-1.26-.56-1.26-1.26v-7.56c0-.7.56-1.26 1.26-1.26h13.86c.7 0 1.26-.56 1.26-1.26 0-25.34 2.1-28.14 2.1-29.96 0-.7-.56-1.26-1.26-1.26-2.8 0-5.18.56-7.98 1.96-.28.14-.7.42-.98.42s-.42-.28-.42-.42c0-7-5.88-12.6-12.88-12.6-7 0-12.88 5.6-12.88 12.6 0 .14-.14.42-.42.42-.28 0-.7-.28-.98-.42-2.8-1.4-5.18-1.96-7.98-1.96-.7 0-1.26.56-1.26 1.26 0 1.82 2.1 4.62 2.1 29.96 0 .7.56 1.26 1.26 1.26h13.86c.7 0 1.26.56 1.26 1.26v25.2c0 .7-.56 1.26-1.26 1.26h-13.86c-.7 0-1.26.56-1.26 1.26 0 25.34-2.1 28.14-2.1 29.96 0 .7.56 1.26 1.26 1.26 2.8 0 5.18-.56 7.98-1.96.28-.14.7-.42.98-.42s.42.28.42.42c0 7 5.88 12.6 12.88 12.6 7 0 12.88-5.6 12.88-12.6 0-.14.14-.42.42-.42.28 0 .7.28.98.42 2.8 1.4 5.18 1.96 7.98 1.96.7 0 1.26-.56 1.26-1.26 0-1.82-2.1-4.62-2.1-29.96 0-.7-.56-1.26-1.26-1.26h-13.86c-.7 0-1.26-.56-1.26-1.26V62.9c0-.7.56-1.26 1.26-1.26h40.32c.7 0 1.26.56 1.26 1.26v7.56c0 .7-.56 1.26-1.26 1.26h-13.86c-.7 0-1.26.56-1.26 1.26 0 25.34-2.1 28.14-2.1 29.96 0 .7.56 1.26 1.26 1.26 2.8 0 5.18-.56 7.98-1.96.28-.14.7-.42.98-.42s.42.28.42.42c0 7 5.88 12.6 12.88 12.6 7 0 12.88-5.6 12.88-12.6 0-.14.14-.42.42-.42.28 0 .7.28.98.42 2.8 1.4 5.18 1.96 7.98 1.96.7 0 1.26-.56 1.26-1.26 0-1.82-2.1-4.62-2.1-29.96 0-.7-.56-1.26-1.26-1.26zM296.033 72.98c0-.7-.56-1.26-1.26-1.26h-11.76c-.7 0-1.82-.56-2.52-1.68l-15.68-24.64s-.28-.42-.28-.84c0-.28.28-.56.84-.56h2.94c.7 0 1.26-.56 1.26-1.26 0-25.34 2.1-28.14 2.1-29.96 0-.7-.56-1.26-1.26-1.26-2.8 0-5.18.56-7.98 1.96-.28.14-.7.42-.98.42s-.42-.28-.42-.42c0-7-5.88-12.6-12.88-12.6-7 0-12.88 5.6-12.88 12.6 0 .14-.14.42-.42.42-.28 0-.7-.28-.98-.42-2.8-1.4-5.18-1.96-7.98-1.96-.7 0-1.26.56-1.26 1.26 0 1.82 2.1 4.62 2.1 29.96 0 .7.56 1.26 1.26 1.26h4.62c.56 0 .84.28.84.56 0 .42-.28.84-.28.84l-15.68 24.64c-.7 1.12-1.12 1.68-1.82 1.68h-14.14c-.7 0-1.26.56-1.26 1.26 0 25.34-2.1 28.14-2.1 29.96 0 .7.56 1.26 1.26 1.26 2.8 0 5.18-.56 7.98-1.96.28-.14.7-.42.98-.42s.42.28.42.42c0 7 5.88 12.6 12.88 12.6 7 0 12.88-5.6 12.88-12.6 0-.14.14-.42.42-.42.28 0 .7.28.98.42 2.8 1.4 5.18 1.96 7.98 1.96.7 0 1.26-.56 1.26-1.26 0-1.82-2.1-4.62-2.1-29.96 0-.7-.56-1.26-1.26-1.26h-13.3c-.56 0-.98 0-.98-.28 0-.42.28-.84.28-.84l3.36-5.46c.7-1.12 1.12-1.68 1.82-1.68h27.44c.7 0 1.12.56 1.82 1.68l3.22 5.18s.28.42.28.84c0 .28-.28.56-.84.56h-10.5c-.7 0-1.26.56-1.26 1.26 0 25.34-2.1 28.14-2.1 29.96 0 .7.56 1.26 1.26 1.26 2.8 0 5.18-.56 7.98-1.96.28-.14.7-.42.98-.42s.42.28.42.42c0 7 5.88 12.6 12.88 12.6 7 0 12.88-5.6 12.88-12.6 0-.14.14-.42.42-.42.28 0 .7.28.98.42 2.8 1.4 5.18 1.96 7.98 1.96.7 0 1.26-.56 1.26-1.26 0-1.82-2.1-4.62-2.1-29.96zm-41.02-17.08h-16.52c-.56 0-.84-.28-.84-.56 0-.42.28-.84.28-.84l5.46-8.82c.7-1.12 1.12-1.68 1.82-1.68h2.94c.7 0 1.12.56 1.82 1.68l5.6 8.82s.28.42.28.84c0 .28-.28.56-.84.56zM374.097 11.52c-6.16 0-14.56 1.68-19.88 4.9-.7.42-1.54.98-1.82.98s-.42-.42-.42-.42c-1.82-9.52-10.22-16.8-20.3-16.8s-18.48 7.28-20.3 16.8c0 0-.14.42-.42.42-.28 0-1.12-.56-1.82-.98-5.32-3.22-13.72-4.9-19.88-4.9-.7 0-1.26.56-1.26 1.26 0 1.82 2.1 4.62 2.1 29.96v11.34c0 .7.56 1.26 1.26 1.26h7.56c.7 0 1.26-.56 1.26-1.26v-1.26c0-4.9 3.92-8.82 8.82-8.82h16.38c.7 0 1.26.56 1.26 1.26v25.2c0 .7-.56 1.26-1.26 1.26h-13.86c-.7 0-1.26.56-1.26 1.26 0 25.34-2.1 28.14-2.1 29.96 0 .7.56 1.26 1.26 1.26 2.8 0 5.18-.56 7.98-1.96.28-.14.7-.42.98-.42s.42.28.42.42c0 7 5.88 12.6 12.88 12.6 7 0 12.88-5.6 12.88-12.6 0-.14.14-.42.42-.42.28 0 .7.28.98.42 2.8 1.4 5.18 1.96 7.98 1.96.7 0 1.26-.56 1.26-1.26 0-1.82-2.1-4.62-2.1-29.96 0-.7-.56-1.26-1.26-1.26h-13.86c-.7 0-1.26-.56-1.26-1.26v-25.2c0-.7.56-1.26 1.26-1.26h16.38c4.9 0 8.82 3.92 8.82 8.82v1.26c0 .7.56 1.26 1.26 1.26h7.56c.7 0 1.26-.56 1.26-1.26V42.74c0-25.34 2.1-28.14 2.1-29.96 0-.7-.56-1.26-1.26-1.26z"/></svg>
